X: 27
T:Sir David Reel. WCa.27
M:C
L:1/8
Q:160
S:Wm. Calvert MS, 1812, Leyburn, Yorks.
R:Reel
O:England
A:North Yorkshire
N:Each note is accompanied by the violin fingering..CGP..
Z:vmp.Chris Partington, May 2003
K:D
d2A>B A>B A>B|A>df2A>df2|g2e>f e>f e>f|e>d c>e e>cA2::!
f>dd2GdFA|DFBd cee2|f>dd2AdFA|DFAc e>cd2:||
W:Accompanied by fiddle fingering.|
